packages/core/src/svgs/shib.svg

<svg width="24" height="24" viewBox="0 0 24 24" fill="none" xmlns="http://www.w3.org/2000/svg">
<g clip-path="url(#clip0_31_18604)">
<path d="M0 0H24V24H0V0Z" fill="#FC1E1F"/>
<path d="M6.05054 14.1001C6.05054 12.8319 6.67839 11.3238 6.99211 10.7281C6.51297 9.22208 5.73468 6.07079 6.45339 5.51408C7.17211 4.95693 8.90739 6.80751 9.68482 7.80222C10.0024 7.63422 10.9028 7.29865 11.9648 7.29865C13.0268 7.29865 14.025 7.63422 14.3918 7.80222C16.4833 5.46136 17.3584 5.30151 17.5341 5.51408C18.2734 6.44793 17.5028 9.37893 17.025 10.7281C17.3335 11.2222 17.949 12.5889 17.949 14.1005C17.949 15.9896 15.234 18.6978 11.9533 18.6978C8.67254 18.6978 6.05097 15.6858 6.05097 14.1001H6.05054Z" fill="#EB9A2E"/>
<path fill-rule="evenodd" clip-rule="evenodd" d="M7.17939 9.94135C6.89868 8.99292 6.42211 6.96492 6.75854 6.44121C7.09496 5.91749 8.44411 7.22849 9.07668 7.94978C8.71239 8.24035 7.82225 9.04607 7.17939 9.94135ZM16.8814 9.94135C17.1617 8.99292 17.6387 6.96492 17.3023 6.44121C16.9654 5.91749 15.6167 7.22849 14.9841 7.94978C15.3484 8.24035 16.2385 9.04607 16.8814 9.94135Z" fill="#E58014"/>
<path d="M9.84134 11.2508C9.52716 11.3076 9.20749 11.3282 8.88862 11.3121C8.82964 11.3105 8.77326 11.2875 8.73014 11.2472C8.68703 11.2069 8.66016 11.1522 8.65462 11.0935C8.62462 10.7052 8.77162 10.1871 9.21177 10.2076C9.73977 10.2325 9.97034 10.6233 10.0513 10.9448C10.0873 11.0892 9.9862 11.2242 9.84134 11.2503V11.2508ZM14.1742 11.2508C14.5496 11.3193 14.8963 11.3249 15.1269 11.3121C15.1859 11.3105 15.2423 11.2875 15.2854 11.2472C15.3285 11.2069 15.3554 11.1522 15.3609 11.0935C15.3909 10.7052 15.2439 10.1871 14.8038 10.2076C14.2758 10.2325 14.0452 10.6233 13.9642 10.9448C13.9282 11.0892 14.0293 11.2242 14.1742 11.2503V11.2508Z" fill="#FEFFF7"/>
<path d="M11.6323 18.6195C7.1182 17.9316 6.03091 15.3144 6.05105 14.0916C8.38377 13.9194 9.18348 14.8219 9.29148 15.2946C9.35363 14.5746 9.96048 13.1338 11.8899 13.1338C13.8193 13.1338 14.4262 14.5742 14.4883 15.2946C15.6823 13.8328 17.3443 13.9862 18.0262 14.2455C16.9222 17.9162 13.3038 18.6911 11.6323 18.6195Z" fill="#EAEAE8"/>
<path fill-rule="evenodd" clip-rule="evenodd" d="M12.5924 13.8276H11.3401C11.2562 13.8283 11.1759 13.8623 11.117 13.9221C11.0581 13.9818 11.0254 14.0626 11.026 14.1465V14.7645C11.0444 14.9646 11.2295 15.3474 11.8102 15.4116V16.0254C11.7717 16.0612 11.7415 16.1051 11.722 16.1539H10.9732V16.1621C10.8942 16.089 10.8069 16.0254 10.7131 15.9726C10.704 15.9677 10.6941 15.9646 10.6838 15.9636C10.6735 15.9625 10.6631 15.9635 10.6532 15.9665C10.6433 15.9695 10.6341 15.9744 10.6262 15.981C10.6182 15.9875 10.6116 15.9956 10.6068 16.0048C10.5968 16.0233 10.5945 16.045 10.6003 16.0652C10.6062 16.0854 10.6197 16.1025 10.6381 16.1128C10.6882 16.1406 10.7658 16.1899 10.8318 16.2474C10.8652 16.2761 10.894 16.3052 10.915 16.3331C10.9364 16.3614 10.9462 16.3832 10.9484 16.3974C10.9514 16.4136 10.9582 16.4274 10.9685 16.4385V16.7814C10.9685 16.8251 11.0037 16.8611 11.047 16.8611C11.0679 16.8608 11.0879 16.8523 11.1026 16.8374C11.1173 16.8225 11.1255 16.8023 11.1254 16.7814V16.3129H12.8088V16.7814C12.8088 16.8251 12.844 16.8611 12.8872 16.8611C12.8976 16.861 12.9079 16.8589 12.9175 16.8549C12.9271 16.8508 12.9359 16.8449 12.9432 16.8375C12.9505 16.8301 12.9563 16.8214 12.9602 16.8117C12.9642 16.8021 12.9662 16.7918 12.9661 16.7814V16.3986C12.9672 16.394 12.968 16.3893 12.9682 16.3845L12.9695 16.3815C12.9751 16.3718 12.9817 16.3628 12.9892 16.3545C13.0094 16.3309 13.0394 16.3031 13.0762 16.2739C13.1491 16.2152 13.237 16.1569 13.2961 16.1218C13.3141 16.1108 13.3271 16.0933 13.3323 16.0728C13.3375 16.0524 13.3345 16.0307 13.324 16.0125C13.3188 16.0035 13.3119 15.9956 13.3037 15.9893C13.2955 15.983 13.2861 15.9784 13.2761 15.9758C13.2661 15.9732 13.2556 15.9726 13.2454 15.974C13.2351 15.9754 13.2253 15.9789 13.2164 15.9842C13.1334 16.034 13.0538 16.0891 12.9781 16.1492L12.9725 16.1535H12.1865C12.1705 16.1233 12.1495 16.0961 12.1244 16.0729V15.4151C12.7274 15.3619 12.8984 14.9681 12.9065 14.7645V14.1465C12.9071 14.0626 12.8743 13.9818 12.8154 13.9221C12.7565 13.8623 12.6763 13.8283 12.5924 13.8276ZM11.4412 16.5418L11.6075 16.7454L11.7344 16.6249L11.9645 16.8478L12.2024 16.6249L12.3134 16.7454L12.4668 16.5418H11.4412Z" fill="#000001"/>
<path d="M8.55008 11.7774C8.31908 11.6865 8.31651 11.8991 8.34437 12.0165V12.1939C8.34449 12.3546 8.39311 12.5115 8.48388 12.6441C8.57464 12.7767 8.70333 12.8788 8.85308 12.9371C9.55337 13.2002 10.7367 13.5645 10.6072 13.1831C10.4358 12.6804 8.83894 11.8909 8.55008 11.7774ZM15.4017 11.7774C15.6322 11.6865 15.6352 11.8991 15.6074 12.0165V12.1939C15.6073 12.3546 15.5586 12.5115 15.4679 12.6441C15.3771 12.7767 15.2484 12.8788 15.0987 12.9371C14.3984 13.2002 13.2147 13.5645 13.3445 13.1831C13.5155 12.6804 15.1128 11.8909 15.4017 11.7774Z" fill="black"/>
<path fill-rule="evenodd" clip-rule="evenodd" d="M9.68148 7.43589C9.0022 6.59503 8.16048 5.6526 7.12163 5.23989C4.69548 4.2756 6.41448 9.82732 6.66863 10.6279C6.33605 11.2737 5.70605 12.7857 5.70605 14.0629C5.70605 16.828 9.70034 18.8573 12.0001 18.8573C14.4022 18.8573 18.2872 16.8945 18.2872 14.0629C18.2872 12.5642 17.7172 11.242 17.3825 10.678C17.8981 9.20889 18.8508 6.53375 17.8213 5.21332C17.1279 4.38403 14.6701 7.05018 14.3713 7.37846C13.9218 7.1946 12.9841 6.97475 11.9641 6.97475C10.9625 6.97475 10.0921 7.24903 9.68148 7.43589ZM6.44791 5.53303C6.39048 5.57675 6.33691 5.65518 6.29534 5.78118C6.2542 5.90632 6.22848 6.0666 6.2182 6.2586C6.19805 6.64303 6.24177 7.12732 6.32534 7.64975C6.49077 8.69332 6.80834 9.8586 7.05048 10.6129L7.07191 10.678L7.03934 10.738C6.72434 11.3312 6.09991 12.8235 6.09991 14.0629C6.09991 14.422 6.25163 14.8823 6.54691 15.379C6.84005 15.8727 7.26691 16.3896 7.79834 16.8597C8.86205 17.8 10.3766 18.4287 12.0001 18.4287C13.6286 18.4287 15.0729 17.8725 16.1581 16.9712C17.2501 16.0643 17.9002 14.9462 17.9002 14.0629C17.9002 12.577 17.2861 11.2283 16.9839 10.7483L16.9423 10.6819L16.9689 10.6082C17.2098 9.93446 17.5243 8.8656 17.6851 7.8516C17.7656 7.3446 17.8068 6.85732 17.7828 6.44203C17.7588 6.02546 17.6709 5.70618 17.5158 5.50989C17.5119 5.50689 17.4811 5.48632 17.3825 5.50132C17.2685 5.51889 17.0936 5.58189 16.8468 5.73103C16.3548 6.02803 15.6116 6.64518 14.5509 7.82032L14.4746 7.90518L14.3709 7.85803C14.0131 7.6956 13.0183 7.36432 11.9641 7.36432C11.1558 7.36432 10.3201 7.53746 9.60091 7.91418C9.08363 7.25889 8.52177 6.62846 7.87634 6.09618C7.5922 5.86175 6.85634 5.21932 6.44791 5.53303Z" fill="black"/>
</g>
<defs>
<clipPath id="clip0_31_18604">
<rect width="24" height="24" fill="white"/>
</clipPath>
</defs>
</svg>

<svg xmlns="http://www.w3.org/2000/svg" width="24" height="24" fill="none" viewBox="0 0 24 24"><g clip-path="url(#a)"><path fill="#FC1E1F" d="M0 0h24v24H0z"/><path fill="#EB9A2E" d="M6.05 14.1c0-1.268.628-2.776.942-3.372-.479-1.506-1.257-4.657-.539-5.214.72-.557 2.454 1.294 3.232 2.288.317-.168 1.218-.503 2.28-.503s2.06.335 2.427.503c2.091-2.34 2.966-2.5 3.142-2.288.74.934-.031 3.865-.509 5.214.309.494.924 1.86.924 3.373 0 1.889-2.715 4.597-5.996 4.597-3.28 0-5.902-3.012-5.902-4.598"/><path fill="#E58014" fill-rule="evenodd" d="M7.18 9.941c-.281-.948-.758-2.976-.421-3.5.336-.524 1.685.787 2.318 1.509-.365.29-1.255 1.096-1.898 1.991m9.701 0c.28-.948.758-2.976.421-3.5s-1.685.787-2.318 1.509c.364.29 1.254 1.096 1.897 1.991" clip-rule="evenodd"/><path fill="#FEFFF7" d="M9.841 11.25a4.2 4.2 0 0 1-.952.062.24.24 0 0 1-.234-.218c-.03-.389.117-.907.557-.886.528.024.758.415.84.737.035.144-.066.28-.21.305m4.333 0c.376.07.722.075.953.062a.24.24 0 0 0 .234-.218c.03-.389-.117-.907-.557-.886-.528.024-.759.415-.84.737-.036.144.065.28.21.305"/><path fill="#EAEAE8" d="M11.632 18.62c-4.514-.688-5.601-3.306-5.58-4.528 2.332-.173 3.131.73 3.24 1.203.062-.72.668-2.161 2.598-2.161s2.536 1.44 2.598 2.16a3.2 3.2 0 0 1 3.538-1.049c-1.104 3.671-4.722 4.446-6.394 4.374"/><path fill="#000001" fill-rule="evenodd" d="M12.592 13.828H11.34a.317.317 0 0 0-.314.319v.617c.018.2.204.583.784.648v.613a.4.4 0 0 0-.088.129h-.749v.008a1.4 1.4 0 0 0-.26-.19.08.08 0 0 0-.087.009.08.08 0 0 0 .012.132c.05.028.128.077.194.134a.6.6 0 0 1 .083.086.2.2 0 0 1 .033.064.1.1 0 0 0 .02.042v.342c0 .044.036.08.079.08a.08.08 0 0 0 .078-.08v-.468h1.684v.468c0 .044.035.08.078.08a.08.08 0 0 0 .056-.024.08.08 0 0 0 .023-.056V16.4l.002-.015.002-.003.02-.026a1 1 0 0 1 .086-.081c.073-.059.161-.117.22-.152a.08.08 0 0 0-.02-.146.08.08 0 0 0-.06.008 2 2 0 0 0-.238.165l-.005.005h-.787a.3.3 0 0 0-.062-.081v-.658c.603-.053.774-.447.782-.65v-.619a.316.316 0 0 0-.314-.318m-1.15 2.714.165.203.127-.12.23.223.238-.223.111.12.154-.203z" clip-rule="evenodd"/><path fill="#000" d="M8.55 11.777c-.23-.09-.233.122-.206.24v.177a.8.8 0 0 0 .51.743c.7.263 1.883.628 1.753.246-.171-.503-1.768-1.292-2.057-1.406m6.852 0c.23-.09.233.122.205.24v.177a.8.8 0 0 1-.508.743c-.7.263-1.884.628-1.755.246.172-.503 1.769-1.292 2.058-1.406"/><path fill="#000" fill-rule="evenodd" d="M9.681 7.436c-.679-.841-1.52-1.783-2.56-2.196-2.426-.964-.707 4.587-.452 5.388-.333.646-.963 2.158-.963 3.435 0 2.765 3.994 4.794 6.294 4.794 2.402 0 6.287-1.962 6.287-4.794 0-1.499-.57-2.821-.904-3.385.515-1.47 1.468-4.144.438-5.465-.693-.829-3.15 1.837-3.45 2.165-.45-.183-1.387-.403-2.407-.403-1.001 0-1.872.274-2.283.46M6.448 5.533a.5.5 0 0 0-.153.248 2 2 0 0 0-.077.478c-.02.384.024.868.107 1.39.166 1.044.483 2.21.725 2.964l.022.065-.033.06c-.315.593-.94 2.085-.94 3.325 0 .359.153.82.448 1.316.293.494.72 1.01 1.251 1.48 1.064.941 2.579 1.57 4.202 1.57 1.629 0 3.073-.556 4.158-1.458 1.092-.907 1.742-2.025 1.742-2.908 0-1.486-.614-2.835-.916-3.315l-.042-.066.027-.074a16.5 16.5 0 0 0 .716-2.756c.08-.507.122-.995.098-1.41-.024-.417-.112-.736-.267-.932-.004-.003-.035-.024-.133-.009-.114.018-.29.08-.536.23-.492.297-1.235.914-2.296 2.09l-.076.084-.104-.047c-.358-.162-1.353-.494-2.407-.494-.808 0-1.644.173-2.363.55-.517-.655-1.08-1.286-1.725-1.818-.284-.234-1.02-.877-1.428-.563" clip-rule="evenodd"/></g><defs><clipPath id="a"><path fill="#fff" d="M0 0h24v24H0z"/></clipPath></defs></svg>
